src/assets/icons/arrows,fancy,down.svg

<svg width="48" height="48" viewBox="0 0 48 48" fill="none" xmlns="http://www.w3.org/2000/svg">
<path opacity="0.8" d="M18.9785 6C18.9785 4.89543 19.8739 4 20.9785 4H26.9785C28.0831 4 28.9785 4.89543 28.9785 6V30C28.9785 31.1046 28.0831 32 26.9785 32H20.9785C19.8739 32 18.9785 31.1046 18.9785 30V6Z" fill="black"/>
<path d="M7.39273 27.4142L22.5643 42.5858C23.3454 43.3668 24.6117 43.3668 25.3927 42.5858L40.5643 27.4142C41.3454 26.6332 41.3454 25.3668 40.5643 24.5858L36.3927 20.4142C35.6117 19.6332 34.3454 19.6332 33.5643 20.4142L25.3927 28.5858C24.6117 29.3668 23.3454 29.3668 22.5643 28.5858L14.3927 20.4142C13.6117 19.6332 12.3454 19.6332 11.5643 20.4142L7.39273 24.5858C6.61168 25.3668 6.61168 26.6332 7.39273 27.4142Z" fill="black"/>
</svg>

<svg xmlns="http://www.w3.org/2000/svg" width="48" height="48" fill="none" viewBox="0 0 48 48">
  <path fill="#000" d="M18.979 6a2 2 0 012-2h6a2 2 0 012 2v24a2 2 0 01-2 2h-6a2 2 0 01-2-2V6z" opacity=".8"/>
  <path fill="#000" d="M7.393 27.414l15.171 15.172a2 2 0 002.829 0l15.171-15.172a2 2 0 000-2.828l-4.171-4.172a2 2 0 00-2.829 0l-8.171 8.172a2 2 0 01-2.829 0l-8.171-8.172a2 2 0 00-2.829 0l-4.171 4.172a2 2 0 000 2.828z"/>
</svg>
